X: 28196
T: Mrs. Campbell Of Shinness
R: jig
M: 6/8
K: Eminor
|:B>cB efg|fae g2 f|B3 efg|fge dBA|
BGB efg|fae g2 f|ede e2 d|e>fe dBA:|
|:BGB BGB|Bgf e2 d|BG/A/B d2 B|efe dB^A|
BGB BdB|Bgf efg|aea g2 f|e>fe dBA:|

